Sources/FrostedUI/Resources/Icons.xcassets/collapseSidebar32.imageset/collapse-sidebar-32.svg

<svg width="32" height="32" viewBox="0 0 32 32" fill="none" xmlns="http://www.w3.org/2000/svg" data-fui-icon="true">
  <path
    d="M23.25 3C26.9779 3 30 6.02208 30 9.75V22.25C30 25.9779 26.9779 29 23.25 29H8.75C5.02208 29 2 25.9779 2 22.25V9.75C2 6.02208 5.02208 3 8.75 3H23.25ZM8.75 4.5C5.85051 4.5 3.5 6.85051 3.5 9.75V22.25C3.5 25.1495 5.85051 27.5 8.75 27.5H11V4.5H8.75ZM12.5 27.5H23.25C26.1495 27.5 28.5 25.1495 28.5 22.25V9.75C28.5 6.85051 26.1495 4.5 23.25 4.5H12.5V27.5Z"
    fill="currentColor"
  />
</svg>

<svg xmlns="http://www.w3.org/2000/svg" width="32" height="32" fill="none" data-fui-icon="true" viewBox="0 0 32 32"><path fill="currentColor" d="M23.25 3A6.75 6.75 0 0 1 30 9.75v12.5A6.75 6.75 0 0 1 23.25 29H8.75A6.75 6.75 0 0 1 2 22.25V9.75A6.75 6.75 0 0 1 8.75 3zM8.75 4.5A5.25 5.25 0 0 0 3.5 9.75v12.5c0 2.9 2.35 5.25 5.25 5.25H11v-23zm3.75 23h10.75c2.9 0 5.25-2.35 5.25-5.25V9.75c0-2.9-2.35-5.25-5.25-5.25H12.5z"/></svg>
